X: 7
T: Sporting Paddy
R: reel
M: 4/4
L: 1/8
K: Ador
EAAB GABG|EAAB G2ED|EAAB GABd|gfge d2BG:||
geef defd|geeg a2ab|geef defd|efge d2cd|
geef defd|geeg a2ga|bagf gfed|efge d2BG|]


Tune 430	Setting 430

